cssgg/code-climate.svg

<svg
  width="24"
  height="24"
  viewBox="0 0 24 24"
  fill="none"
  xmlns="http://www.w3.org/2000/svg"
>
  <path
    d="M9.49506 8.1109L3.1311 14.4749L4.54532 15.8891L9.49506 10.9393L14.4448 15.8891L15.859 14.4749L9.49506 8.1109Z"
    fill="currentColor"
  />
  <path
    d="M14.5049 8.11092L12.5317 10.0842L13.9503 11.494L14.5049 10.9393L19.4547 15.8891L20.8689 14.4749L14.5049 8.11092Z"
    fill="currentColor"
  />
</svg>

<svg viewBox="0 0 24 24" xmlns="http://www.w3.org/2000/svg"><g><path d="M9.49 8.11l-6.37 6.36 1.41 1.41 4.94-4.95 4.94 4.94 1.41-1.42 -6.37-6.37Z"/><path d="M14.5 8.11l-1.98 1.97 1.41 1.4 .55-.56 4.94 4.94 1.41-1.42 -6.37-6.37Z"/></g></svg>
